X:62
T:Millfield. (p)1651.PLFD1.062
M:6/4
L:1/4
Q:3/4=90
S:Playford, Dancing Master,1st Ed.,1651.
O:England;London
H:1651.
Z:Chris Partington.
K:G
G| A2B c>BA|B>AG d2 c|A2F D2 G|F>EF G2:|
|:G| A2 F D2 d |B2 G G2 B|A2 F D2 G|F>EF G2:|
